X: 28276
T: Mrs. MacInroy Of Lude
R: reel
M: 4/4
K: Bminor
B|"Bm"(FB)Bc (dc)df|"A"eAcA aAcA|"Bm"FBdc Bdfa|"F#m"b>fec "Bm"B/B/B B:|
^a|"Bm"(bB)fB (bB)fd|"A"(cA)eA (aA)ec|"Bm"(bB)fB "F#m"(bB)fd|"A"c>Aec "Bm"BB/B/B (B^a)|
"Bm"(bB)fB (bB)fd|"A"(cA)eA (aA)ec|"Bm"bBdc Bdfa|"A"a>fec "Bm"B/B/B B||

